svgs/thin/wave-square.svg

<svg xmlns="http://www.w3.org/2000/svg" viewBox="0 0 640 512"><!--! Font Awesome Pro 6.6.0 by @fontawesome - https://fontawesome.com License - https://fontawesome.com/license (Commercial License) Copyright 2024 Fonticons, Inc. --><path d="M184 48c-13.3 0-24 10.7-24 24l0 152c0 22.1-17.9 40-40 40L8 264c-4.4 0-8-3.6-8-8s3.6-8 8-8l112 0c13.3 0 24-10.7 24-24l0-152c0-22.1 17.9-40 40-40l104 0c22.1 0 40 17.9 40 40l0 368c0 13.3 10.7 24 24 24l104 0c13.3 0 24-10.7 24-24l0-152c0-22.1 17.9-40 40-40l112 0c4.4 0 8 3.6 8 8s-3.6 8-8 8l-112 0c-13.3 0-24 10.7-24 24l0 152c0 22.1-17.9 40-40 40l-104 0c-22.1 0-40-17.9-40-40l0-368c0-13.3-10.7-24-24-24L184 48z"/></svg>

<svg xmlns="http://www.w3.org/2000/svg" viewBox="0 0 640 512"><!--! Font Awesome Pro 6.4.2 by @fontawesome - https://fontawesome.com License - https://fontawesome.com/license (Commercial License) Copyright 2023 Fonticons, Inc. --><path d="M184 48c-13.3 0-24 10.7-24 24V224c0 22.1-17.9 40-40 40H8c-4.4 0-8-3.6-8-8s3.6-8 8-8H120c13.3 0 24-10.7 24-24V72c0-22.1 17.9-40 40-40H288c22.1 0 40 17.9 40 40V440c0 13.3 10.7 24 24 24H456c13.3 0 24-10.7 24-24V288c0-22.1 17.9-40 40-40H632c4.4 0 8 3.6 8 8s-3.6 8-8 8H520c-13.3 0-24 10.7-24 24V440c0 22.1-17.9 40-40 40H352c-22.1 0-40-17.9-40-40V72c0-13.3-10.7-24-24-24H184z"/></svg>
